P2
17 17
255
24 24 24 24 24 24 24 24 24 24 24 24 24 24 190 190 190
24 24 24 24 24 24 24 24 24 24 24 24 24 24 190 190 190
24 24 24 24 24 24 24 24 24 24 24 24 24 24 190 190 190
24 24 24 12 12 12 12 12 12 12 12 12 12 12 190 190 190
24 24 24 12 12 12 12 12 12 12 12 12 12 12 190 190 190
24 24 24 12 12 12 12 12 12 12 12 12 12 12 190 190 190
24 24 24 12 12 12 12 12 12 12 12 12 12 12 190 190 190
24 24 24 12 12 12 12 12 12 12 12 12 12 12 190 190 190
24 24 24 12 12 12 12 12 12 12 12 12 12 12 190 190 190
24 24 24 12 12 12 12 12 12 12 12 12 12 12 190 190 190
24 24 24 12 12 12 12 12 12 12 12 12 12 12 190 190 190
24 24 24 12 12 12 12 12 12 12 12 12 12 12 190 190 190
24 24 24 12 12 12 12 12 12 12 12 12 12 12 190 190 190
24 24 24 12 12 12 12 12 12 12 12 12 12 12 190 190 190
24 24 24 24 24 24 24 24 24 24 24 24 24 24 190 190 190
24 24 24 24 24 24 24 24 24 24 24 24 24 24 190 190 190
24 24 24 24 24 24 24 24 24 24 24 24 24 24 190 190 190
